svg/SJJB-OpenStreetMapIcons/place_of_worship/buddhist3.svg

<?xml version="1.0" encoding="UTF-8" standalone="no"?>
<!-- Created with Inkscape (http://www.inkscape.org/) -->
<svg
   xmlns:dc="http://purl.org/dc/elements/1.1/"
   xmlns:cc="http://creativecommons.org/ns#"
   xmlns:rdf="http://www.w3.org/1999/02/22-rdf-syntax-ns#"
   xmlns:svg="http://www.w3.org/2000/svg"
   xmlns="http://www.w3.org/2000/svg"
   xmlns:sodipodi="http://sodipodi.sourceforge.net/DTD/sodipodi-0.dtd"
   xmlns:inkscape="http://www.inkscape.org/namespaces/inkscape"
   version="1.0"
   width="580"
   height="580"
   id="svg2"
   sodipodi:version="0.32"
   inkscape:version="0.46"
   sodipodi:docname="place_of_worship_buddhist3.svg"
   sodipodi:docbase="s:\Data\FacilityIcons"
   inkscape:output_extension="org.inkscape.output.svg.inkscape">
  <metadata
     id="metadata2975">
    <rdf:RDF>
      <cc:Work
         rdf:about="">
        <dc:format>image/svg+xml</dc:format>
        <dc:type
           rdf:resource="http://purl.org/dc/dcmitype/StillImage" />
        <cc:license
           rdf:resource="http://web.resource.org/cc/PublicDomain" />
        <dc:language>en</dc:language>
      </cc:Work>
    </rdf:RDF>
  </metadata>
  <sodipodi:namedview
     inkscape:window-height="1003"
     inkscape:window-width="1400"
     inkscape:pageshadow="2"
     inkscape:pageopacity="0.0"
     guidetolerance="10.0"
     gridtolerance="10.0"
     objecttolerance="10.0"
     borderopacity="1.0"
     bordercolor="#666666"
     pagecolor="#ffffff"
     id="base"
     inkscape:zoom="0.65172414"
     inkscape:cx="-37.795207"
     inkscape:cy="492.50373"
     inkscape:window-x="0"
     inkscape:window-y="20"
     inkscape:current-layer="svg2"
     showgrid="false" />
  <defs
     id="defs4">
    <inkscape:perspective
       sodipodi:type="inkscape:persp3d"
       inkscape:vp_x="0 : 290 : 1"
       inkscape:vp_y="0 : 1000 : 0"
       inkscape:vp_z="580 : 290 : 1"
       inkscape:persp3d-origin="290 : 193.33333 : 1"
       id="perspective2441" />
    <inkscape:perspective
       id="perspective2466"
       inkscape:persp3d-origin="372.04724 : 350.78739 : 1"
       inkscape:vp_z="744.09448 : 526.18109 : 1"
       inkscape:vp_y="0 : 1000 : 0"
       inkscape:vp_x="0 : 526.18109 : 1"
       sodipodi:type="inkscape:persp3d" />
    <inkscape:perspective
       id="perspective3333"
       inkscape:persp3d-origin="372.04724 : 350.78739 : 1"
       inkscape:vp_z="744.09448 : 526.18109 : 1"
       inkscape:vp_y="0 : 1000 : 0"
       inkscape:vp_x="0 : 526.18109 : 1"
       sodipodi:type="inkscape:persp3d" />
    <inkscape:perspective
       id="perspective3401"
       inkscape:persp3d-origin="372.04724 : 350.78739 : 1"
       inkscape:vp_z="744.09448 : 526.18109 : 1"
       inkscape:vp_y="0 : 1000 : 0"
       inkscape:vp_x="0 : 526.18109 : 1"
       sodipodi:type="inkscape:persp3d" />
    <inkscape:perspective
       id="perspective3464"
       inkscape:persp3d-origin="372.04724 : 350.78739 : 1"
       inkscape:vp_z="744.09448 : 526.18109 : 1"
       inkscape:vp_y="0 : 1000 : 0"
       inkscape:vp_x="0 : 526.18109 : 1"
       sodipodi:type="inkscape:persp3d" />
    <inkscape:perspective
       id="perspective3581"
       inkscape:persp3d-origin="225 : 150 : 1"
       inkscape:vp_z="450 : 225 : 1"
       inkscape:vp_y="0 : 1000 : 0"
       inkscape:vp_x="0 : 225 : 1"
       sodipodi:type="inkscape:persp3d" />
    <inkscape:perspective
       id="perspective4312"
       inkscape:persp3d-origin="225 : 150 : 1"
       inkscape:vp_z="450 : 225 : 1"
       inkscape:vp_y="0 : 1000 : 0"
       inkscape:vp_x="0 : 225 : 1"
       sodipodi:type="inkscape:persp3d" />
  </defs>
  <g
     id="g1327">
    <path
       d="M 66.275,1.768 C 24.94,1.768 1.704,23.139 1.704,66.804 L 1.704,516.927 C 1.704,557.771 22.599,579.156 63.896,579.156 L 515.92,579.156 C 557.227,579.156 578.149,558.841 578.149,516.927 L 578.149,66.804 C 578.149,24.203 557.227,1.768 514.628,1.768 C 514.624,1.768 66.133,1.625 66.275,1.768 z "
       style="fill:#111;stroke:#eee;stroke-width:3.40799999"
       id="path1329" />
  </g>
  <path
     sodipodi:nodetypes="cccccsscccsscscssssssscccsccsscscccccscccccccccscccccccsccssssccccccsccssssccccssccccccccc"
     id="path1873"
     d="M 280.20349,557.10339 C 275.4337,552.33363 272.92649,544.97509 272.92649,535.74583 L 272.92649,521.66522 L 251.81633,517.51206 C 169.90036,501.39607 97.450677,416.48466 79.870405,328.50075 C 74.50844,328.08683 71.543681,327.87821 65.877415,327.87821 C 48.155947,327.87821 36.424315,316.05296 36.424315,298.19005 C 36.424315,281.9532 46.404667,272.45513 64.618644,271.35819 L 78.267012,270.53622 L 84.708567,245.53938 C 95.45536,203.83597 111.41279,176.40024 143.7188,144.08261 C 176.82962,110.9599 204.54359,94.326009 244.55244,84.413765 C 256.70863,81.402045 257.64208,83.725098 271.32566,80.67256 C 273.13348,61.664076 271.48655,40.464466 300.54856,41.460973 C 323.51919,42.262319 325.71207,56.2882 325.80681,79.561024 C 333.68452,80.332975 336.24173,80.565766 349.87852,83.369852 C 431.8724,100.22995 505.50299,174.202 519.87045,256.92755 C 522.14441,270.02049 523.36498,271.36746 532.02907,270.34525 C 543.46567,268.99596 562.20002,277.9001 565.38442,286.19851 C 573.27185,306.75288 561.70867,324.41429 538.3069,327.55624 C 522.98627,329.61323 522.25963,330.27907 519.83815,344.48051 C 516.04575,366.72197 501.16452,400.78164 484.54908,425.24892 C 455.26472,468.37208 409.61307,500.46055 356.61187,515.17582 L 329.32317,522.75229 L 328.14487,537.19896 C 327.49678,545.14465 324.37773,554.51096 321.21357,558.01301 C 313.11632,566.97501 289.55242,566.45232 280.20349,557.10339 z M 272.92649,417.02134 C 272.92649,392.00669 271.66237,371.54015 270.11728,371.54015 C 268.57222,371.54015 253.47426,385.4462 236.56628,402.44247 C 219.54969,419.54791 209.94072,430.05151 206.36897,435.20723 C 210.77167,438.43078 218.50021,447.11973 237.841,455.07072 C 254.04663,461.73283 267.40333,463.64123 273.51621,464.56308 C 272.5054,456.96179 272.92649,445.56067 272.92649,417.02134 z M 382.19507,446.52535 L 398.03258,436.76152 L 365.57298,404.15084 C 347.7202,386.21497 331.85127,371.54015 330.30865,371.54015 C 328.76604,371.54015 327.50391,392.21135 327.50391,417.47614 L 327.50391,463.41215 L 346.93075,459.85065 C 353.43456,458.55199 369.30349,452.55561 382.19507,446.52535 z M 200.12988,359.71504 L 233.84414,327.87821 L 185.66824,327.87821 L 137.49232,327.87821 L 139.95901,341.02682 C 142.78058,356.06709 160.50561,393.93661 164.05366,392.50494 C 165.35272,391.98073 181.58701,377.22529 200.12988,359.71504 z M 454.23342,368.22999 C 459.92766,355.72266 462.40275,345.38773 463.64563,339.88451 L 465.90535,327.87821 L 417.70184,327.87821 L 369.49834,327.87821 L 402.09307,360.62465 C 420.02017,378.6352 436.03596,393.37113 437.68369,393.37113 C 439.33142,393.37113 448.53921,380.73732 454.23342,368.22999 z M 313.85504,332.2564 C 320.11269,329.02047 330.38397,318.23547 333.41415,310.98326 C 338.24385,299.42416 335.28797,287.19044 326.21651,277.24406 C 311.75004,261.38234 292.95735,261.28732 276.90551,276.41206 C 261.24167,291.17118 265.07665,311.66649 273.97037,322.07426 C 284.17075,334.01111 300.67643,339.07134 313.85504,332.2564 z M 229.26455,269.58642 C 229.26455,268.5441 214.75489,253.2489 197.02085,235.59703 L 164.77718,203.50274 L 157.01607,216.06041 C 148.29704,230.1681 142.70319,245.40888 137.90208,271.57301 C 140.30263,271.91091 144.23475,271.48154 183.78336,271.48154 C 208.79801,271.48154 229.26455,270.62875 229.26455,269.58642 z M 462.92924,261.68287 C 462.34101,256.89671 459.52475,242.24164 453.64119,229.122 C 447.69654,215.86612 438.679,204.16937 437.10172,204.16937 C 434.47098,204.16937 371.16608,266.97558 371.16527,269.58642 C 371.16494,270.62875 392.04081,271.1409 417.55609,270.72455 C 463.51111,269.97469 463.9379,269.88965 462.92924,261.68287 z M 272.92649,182.26908 L 272.92649,134.89934 L 262.92062,137.15907 C 244.68613,137.95699 206.54775,159.03901 207.43358,162.97316 C 207.98968,165.44286 269.49142,229.63884 271.941,229.63884 C 272.48303,229.63884 272.92649,208.32246 272.92649,182.26908 z M 372.62201,147.12845 C 359.03355,140.74987 343.42234,138.62007 338.41939,137.99454 L 329.32317,136.85722 L 328.31247,184.15765 L 327.30173,231.45809 L 362.11499,196.89238 L 396.92823,162.32668 L 372.62201,147.12845 z"
     style="opacity:0.25;fill:#ffffff" />
  <path
     style="opacity:1;fill:#ffffff"
     d="M 252.20349,529.10339 C 247.4337,524.33363 244.92649,516.97509 244.92649,507.74583 L 244.92649,493.66522 L 223.81633,489.51206 C 141.90036,473.39607 69.450677,388.48466 51.870405,300.50075 C 46.50844,300.08683 43.543681,299.87821 37.877415,299.87821 C 20.155947,299.87821 8.424315,288.05296 8.424315,270.19005 C 8.424315,253.9532 18.404667,244.45513 36.618644,243.35819 L 50.267012,242.53622 L 56.708567,217.53938 C 67.45536,175.83597 83.412788,148.40024 115.7188,116.08261 C 148.82962,82.959901 176.54359,66.326009 216.55244,56.413765 C 228.70863,53.402045 229.64208,55.725098 243.32566,52.67256 C 245.13348,33.664076 243.48655,12.464466 272.54856,13.460973 C 295.51919,14.262319 297.71207,28.2882 297.80681,51.561024 C 305.68452,52.332975 308.24173,52.565766 321.87852,55.369852 C 403.8724,72.229946 477.50299,146.202 491.87045,228.92755 C 494.14441,242.02049 495.36498,243.36746 504.02907,242.34525 C 515.46567,240.99596 534.20002,249.9001 537.38442,258.19851 C 545.27185,278.75288 533.70867,296.41429 510.3069,299.55624 C 494.98627,301.61323 494.25963,302.27907 491.83815,316.48051 C 488.04575,338.72197 473.16452,372.78164 456.54908,397.24892 C 427.26472,440.37208 381.61307,472.46055 328.61187,487.17582 L 301.32317,494.75229 L 300.14487,509.19896 C 299.49678,517.14465 296.37773,526.51096 293.21357,530.01301 C 285.11632,538.97501 261.55242,538.45232 252.20349,529.10339 z M 244.92649,389.02134 C 244.92649,364.00669 243.66237,343.54015 242.11728,343.54015 C 240.57222,343.54015 225.47426,357.4462 208.56628,374.44247 C 191.54969,391.54791 181.94072,402.05151 178.36897,407.20723 C 182.77167,410.43078 190.50021,419.11973 209.841,427.07072 C 226.04663,433.73283 239.40333,435.64123 245.51621,436.56308 C 244.5054,428.96179 244.92649,417.56067 244.92649,389.02134 z M 354.19507,418.52535 L 370.03258,408.76152 L 337.57298,376.15084 C 319.7202,358.21497 303.85127,343.54015 302.30865,343.54015 C 300.76604,343.54015 299.50391,364.21135 299.50391,389.47614 L 299.50391,435.41215 L 318.93075,431.85065 C 325.43456,430.55199 341.30349,424.55561 354.19507,418.52535 z M 172.12988,331.71504 L 205.84414,299.87821 L 157.66824,299.87821 L 109.49232,299.87821 L 111.95901,313.02682 C 114.78058,328.06709 132.50561,365.93661 136.05366,364.50494 C 137.35272,363.98073 153.58701,349.22529 172.12988,331.71504 z M 426.23342,340.22999 C 431.92766,327.72266 434.40275,317.38773 435.64563,311.88451 L 437.90535,299.87821 L 389.70184,299.87821 L 341.49834,299.87821 L 374.09307,332.62465 C 392.02017,350.6352 408.03596,365.37113 409.68369,365.37113 C 411.33142,365.37113 420.53921,352.73732 426.23342,340.22999 z M 285.85504,304.2564 C 292.11269,301.02047 302.38397,290.23547 305.41415,282.98326 C 310.24385,271.42416 307.28797,259.19044 298.21651,249.24406 C 283.75004,233.38234 264.95735,233.28732 248.90551,248.41206 C 233.24167,263.17118 237.07665,283.66649 245.97037,294.07426 C 256.17075,306.01111 272.67643,311.07134 285.85504,304.2564 z M 201.26455,241.58642 C 201.26455,240.5441 186.75489,225.2489 169.02085,207.59703 L 136.77718,175.50274 L 129.01607,188.06041 C 120.29704,202.1681 114.70319,217.40888 109.90208,243.57301 C 112.30263,243.91091 116.23475,243.48154 155.78336,243.48154 C 180.79801,243.48154 201.26455,242.62875 201.26455,241.58642 z M 434.92924,233.68287 C 434.34101,228.89671 431.52475,214.24164 425.64119,201.122 C 419.69654,187.86612 410.679,176.16937 409.10172,176.16937 C 406.47098,176.16937 343.16608,238.97558 343.16527,241.58642 C 343.16494,242.62875 364.04081,243.1409 389.55609,242.72455 C 435.51111,241.97469 435.9379,241.88965 434.92924,233.68287 z M 244.92649,154.26908 L 244.92649,106.89934 L 234.92062,109.15907 C 216.68613,109.95699 178.54775,131.03901 179.43358,134.97316 C 179.98968,137.44286 241.49142,201.63884 243.941,201.63884 C 244.48303,201.63884 244.92649,180.32246 244.92649,154.26908 z M 344.62201,119.12845 C 331.03355,112.74987 315.42234,110.62007 310.41939,109.99454 L 301.32317,108.85722 L 300.31247,156.15765 L 299.30173,203.45809 L 334.11499,168.89238 L 368.92823,134.32668 L 344.62201,119.12845 z"
     id="path5316"
     sodipodi:nodetypes="cccccsscccsscscssssssscccsccsscscccccscccccccccscccccccsccssssccccccsccssssccccssccccccccc" />
</svg>

<svg xmlns="http://www.w3.org/2000/svg" viewBox="0 0 580 580"><path d="m66.28 1.768c-41.34 0-64.57 21.371-64.57 65.04v450.12c0 40.844 20.895 62.23 62.19 62.23h452.02c41.31 0 62.23-20.315 62.23-62.23v-450.12c0-42.601-20.922-65.04-63.52-65.04-.004 0-448.5-.143-448.35 0z" fill="#111" stroke="#eee" stroke-width="3.408"/><g fill="#fff"><path d="m280.2 557.1c-4.77-4.77-7.277-12.13-7.277-21.358v-14.08l-21.11-4.153c-81.916-16.12-154.37-101.03-171.95-189.01-5.362-.414-8.327-.623-13.993-.623-17.721 0-29.453-11.825-29.453-29.688 0-16.237 9.98-25.735 28.19-26.832l13.648-.822 6.442-24.997c10.747-41.703 26.704-69.14 59.01-101.46 33.11-33.12 60.825-49.757 100.83-59.669 12.156-3.01 13.09-.689 26.773-3.741 1.808-19.01.161-40.21 29.22-39.21 22.971.801 25.16 14.827 25.26 38.1 7.878.772 10.435 1 24.07 3.809 81.994 16.86 155.62 90.83 169.99 173.56 2.274 13.09 3.495 14.44 12.159 13.418 11.437-1.349 30.17 7.555 33.36 15.853 7.887 20.554-3.676 38.22-27.08 41.36-15.321 2.057-16.05 2.723-18.469 16.924-3.792 22.24-18.674 56.3-35.29 80.77-29.28 43.12-74.936 75.21-127.94 89.93l-27.29 7.576-1.178 14.447c-.648 7.946-3.767 17.312-6.931 20.814-8.097 8.962-31.661 8.439-41.01-.91m-7.277-140.08c0-25.01-1.264-45.48-2.809-45.48-1.545 0-16.643 13.906-33.551 30.902-17.02 17.11-26.626 27.609-30.2 32.765 4.403 3.224 12.13 11.913 31.472 19.863 16.206 6.662 29.562 8.571 35.675 9.492-1.01-7.601-.59-19-.59-47.542m109.27 29.504l15.838-9.764-32.46-32.611c-17.853-17.936-33.722-32.611-35.26-32.611-1.543 0-2.805 20.671-2.805 45.936v45.936l19.427-3.562c6.504-1.299 22.373-7.295 35.26-13.325m-182.07-86.81l33.714-31.837h-48.18-48.18l2.467 13.149c2.822 15.04 20.547 52.91 24.09 51.48 1.299-.524 17.533-15.28 36.08-32.79m254.1 8.515c5.694-12.507 8.169-22.842 9.412-28.345l2.26-12.01h-48.2-48.2l32.595 32.746c17.927 18.01 33.943 32.746 35.591 32.746 1.648 0 10.856-12.634 16.55-25.14m-140.38-35.974c6.258-3.236 16.529-14.02 19.559-21.273 4.83-11.559 1.874-23.793-7.198-33.739-14.466-15.862-33.26-15.957-49.31-.832-15.664 14.759-11.829 35.25-2.935 45.662 10.2 11.937 26.706 16.997 39.885 10.182m-84.59-62.67c0-1.042-14.51-16.338-32.24-33.989l-32.24-32.09-7.761 12.558c-8.719 14.11-14.313 29.348-19.11 55.51 2.401.338 6.333-.091 45.881-.091 25.01 0 45.48-.853 45.48-1.895m233.66-7.904c-.588-4.786-3.404-19.441-9.288-32.561-5.945-13.256-14.962-24.953-16.539-24.953-2.631 0-65.936 62.806-65.936 65.42 0 1.042 20.876 1.554 46.39 1.138 45.955-.75 46.38-.835 45.37-9.04m-190-79.41v-47.37l-10.01 2.26c-18.234.798-56.37 21.88-55.49 25.814.556 2.47 62.06 66.67 64.51 66.67.542 0 .985-21.316.985-47.37m99.7-35.14c-13.588-6.379-29.2-8.508-34.2-9.134l-9.1-1.137-1.01 47.3-1.01 47.3 34.813-34.566 34.813-34.566-24.306-15.198" opacity=".25"/><path d="m252.2 529.1c-4.77-4.77-7.277-12.13-7.277-21.358v-14.08l-21.11-4.153c-81.916-16.12-154.37-101.03-171.95-189.01-5.362-.414-8.327-.623-13.993-.623-17.721 0-29.453-11.825-29.453-29.688 0-16.237 9.98-25.735 28.19-26.832l13.648-.822 6.442-24.997c10.747-41.703 26.704-69.14 59.01-101.46 33.11-33.12 60.825-49.757 100.83-59.669 12.156-3.01 13.09-.689 26.773-3.741 1.808-19.01.161-40.21 29.22-39.21 22.971.801 25.16 14.827 25.26 38.1 7.878.772 10.435 1 24.07 3.809 81.994 16.86 155.62 90.83 169.99 173.56 2.274 13.09 3.495 14.44 12.159 13.418 11.437-1.349 30.17 7.555 33.36 15.853 7.887 20.554-3.676 38.22-27.08 41.36-15.321 2.057-16.05 2.723-18.469 16.924-3.792 22.24-18.674 56.3-35.29 80.77-29.28 43.12-74.936 75.21-127.94 89.93l-27.29 7.576-1.178 14.447c-.648 7.946-3.767 17.312-6.931 20.814-8.097 8.962-31.661 8.439-41.01-.91m-7.277-140.08c0-25.01-1.264-45.48-2.809-45.48-1.545 0-16.643 13.906-33.551 30.902-17.02 17.11-26.626 27.609-30.2 32.765 4.403 3.224 12.13 11.913 31.472 19.863 16.206 6.662 29.562 8.571 35.675 9.492-1.01-7.601-.59-19-.59-47.542m109.27 29.504l15.838-9.764-32.46-32.611c-17.853-17.936-33.722-32.611-35.26-32.611-1.543 0-2.805 20.671-2.805 45.936v45.936l19.427-3.562c6.504-1.299 22.373-7.295 35.26-13.325m-182.07-86.81l33.714-31.837h-48.18-48.18l2.467 13.149c2.822 15.04 20.547 52.91 24.09 51.48 1.299-.524 17.533-15.28 36.08-32.79m254.1 8.515c5.694-12.507 8.169-22.842 9.412-28.345l2.26-12.01h-48.2-48.2l32.595 32.746c17.927 18.01 33.943 32.746 35.591 32.746 1.648 0 10.856-12.634 16.55-25.14m-140.38-35.974c6.258-3.236 16.529-14.02 19.559-21.273 4.83-11.559 1.874-23.793-7.198-33.739-14.466-15.862-33.26-15.957-49.31-.832-15.664 14.759-11.829 35.25-2.935 45.662 10.2 11.937 26.706 16.997 39.885 10.182m-84.59-62.67c0-1.042-14.51-16.338-32.24-33.989l-32.24-32.09-7.761 12.558c-8.719 14.11-14.313 29.348-19.11 55.51 2.401.338 6.333-.091 45.881-.091 25.01 0 45.48-.853 45.48-1.895m233.66-7.904c-.588-4.786-3.404-19.441-9.288-32.561-5.945-13.256-14.962-24.953-16.539-24.953-2.631 0-65.936 62.806-65.936 65.42 0 1.042 20.876 1.554 46.39 1.138 45.955-.75 46.38-.835 45.37-9.04m-190-79.41v-47.37l-10.01 2.26c-18.234.798-56.37 21.88-55.49 25.814.556 2.47 62.06 66.67 64.51 66.67.542 0 .985-21.316.985-47.37m99.7-35.14c-13.588-6.379-29.2-8.508-34.2-9.134l-9.1-1.137-1.01 47.3-1.01 47.3 34.813-34.566 34.813-34.566-24.306-15.198"/></g></svg>
